!!!COM: Anon.
!!!OTL: Asaku-Tomo
!!!OTC: Japanese Popular Music: A Collection of The Popular Music of Japan Rendered in to the Staff notation.
!!!CNT: Nippon, Japanese
!!!TXO: Nippon, Japan
!!!OCY: Nippon, Japan
!!!ODT: <1892///
!!!PSR: S. Miki & Co.
!!!PSP: Osaka, Nippon
!!!PDT: 1892///
!!!PPE: Y Nagai & K. Kobatake
!!!PED: Revised Second Edition
!!!PPG: page 69
!! Moderato
**kern	**silbe
*ICstr	*Lnippon
*ICvox	*
*Ikoto	*
*Ivox	*
*clefG2	*
*k[]	*
*M4/4	*
=1-	=1-
8cc	.
8dd	.
8cc	.
8a	.
8g	.
8f	.
4c	.
=2	=2
4cc	.
4g	.
4cc	.
4r	.
=3	=3
2cc	.
4.a	.
8cc	.
=4	=4
8g	.
8f	.
8r	.
8f	.
4G	.
8r	.
8a	.
=5	=5
4a	.
8.a	.
16cc	.
8g	.
8f	.
8r	.
8g	.
=6	=6
4c	.
8.d	.
16a	.
4cc	.
4g	.
=7	=7
4cc	.
4r	.
8cc	.
8cc	.
[4cc	.
=8	=8
8cc]	.
8cc	.
4cc	.
4cc	.
4dd	.
=9	=9
8r	.
8ff	.
8cc	.
8cc	.
8B	.
8a	.
8.g	.
16f	.
=10	=10
4d	.
4ff	.
8gg	.
8gg	.
8.g	.
16aa	.
=11	=11
4gg	.
4gg	.
4gg	.
8r	.
8ff	.
=12	=12
4.gg	.
8g	.
4g	.
4gg	.
=13	=13
4.gg	.
8g	.
4cc	.
4ee	.
=14	=14
2ee	.
4.dd	.
8g	.
=15	=15
4cc	.
4dd	.
4ee	.
4cc	.
=16	=16
4a	.
8dd	.
8cc	.
4dd	.
4cc	.
=17	=17
8dd	.
8ee	.
8dd	.
8dd	.
8dd	.
8r	.
8dd	.
8dd	.
=18	=18
8dd	.
8r	.
8dd	.
8dd	.
4dd	.
4dd	.
=19	=19
4dd	.
4.cc	.
8a	.
(4dd	.
=20	=20
8.b)	.
16dd	.
4a	.
(4g	.
4f)	.
=21	=21
8r	.
8f	.
4g	.
4.g	.
8a	.
=22	=22
8cc	.
8g	.
4f	.
8cc	.
8r	.
8a	.
8r	.
=23	=23
4g	.
8.g	.
16d	.
8d	.
8f	.
8g	.
16a	.
16g	.
=24	=24
8G	.
8g	.
4g	.
8r	.
8g	.
4c	.
=25	=25
8a	.
8a	.
8d	.
8a	.
8d	.
8cc	.
8g	.
16g	.
16g	.
=26	=26
8g	.
8g	.
4c	.
8.f	.
16d	.
8d	.
8f	.
=27	=27
8r	.
8g	.
8r	.
8g	.
4c	.
8.c	.
16a	.
=28	=28
4cc	.
4g	.
4cc	.
4r	.
==	==
*-	*-
!!!ENC: David Huron
!!!RDT: 2000/1/30
!!!EEV: Release 1.0
!!!ELF: 19/28
!!!YER: 2000/2/1
!!!YEM: Copyright David Huron, 2000
!!!YEN: United States of America
